X:1
T:Pastourelle. TWC.248, La
T:Pastourelle. TWC.248, La
T:French
C:French
L:1/8
Q:1/4=100
M:2/4
K:A
V:1 treble 
V:1
 e | a2 a2 | e3 c | dBAG | A/G/A/B/ AA | a2 a2 | e3 c | dBAG | A3 || c | dcdB | e3 c | dBAG | %13
 A/G/A/B/ Ac | dcdB | e3 c | dBAG | A3!fine! || A | EAEA | BB/d/ cc | EAEA | BB/d/ c2 | EAEA | %24
 BB/d/ cc | EAEA | Bc d!D.C.! |] %27

